packages/hms_room_kit/lib/src/assets/icons/caption_off.svg

<svg width="26" height="20" viewBox="0 0 26 20" fill="none" xmlns="http://www.w3.org/2000/svg">
<path fill-rule="evenodd" clip-rule="evenodd" d="M6.03175 0.666748H19.3016C22.6328 0.666748 25.3333 3.36725 25.3333 6.69849V13.9366C25.3333 17.2678 22.6328 19.9683 19.3016 19.9683H6.03175C2.7005 19.9683 0 17.2678 0 13.9366V6.69849C0 3.36725 2.70051 0.666748 6.03175 0.666748ZM1.80952 6.69849C1.80952 4.36663 3.69988 2.47627 6.03175 2.47627H19.3016C21.6335 2.47627 23.5238 4.36663 23.5238 6.69849V13.9366C23.5238 16.2685 21.6335 18.1588 19.3016 18.1588H6.03175C3.69988 18.1588 1.80952 16.2685 1.80952 13.9366V6.69849Z" fill="white"/>
<path d="M8.33916 14.5397C7.48145 14.5397 6.74494 14.3604 6.12963 14.0019C5.51805 13.6434 5.04631 13.1482 4.71442 12.5164C4.38625 11.881 4.22217 11.1498 4.22217 10.3228C4.22217 9.49216 4.38998 8.75917 4.7256 8.1238C5.06123 7.48487 5.53483 6.98793 6.14641 6.63298C6.76172 6.27447 7.48891 6.09521 8.32797 6.09521C9.02532 6.09521 9.6425 6.21768 10.1795 6.4626C10.7202 6.70397 11.1509 7.0465 11.4716 7.4902C11.7924 7.93035 11.9751 8.44503 12.0198 9.03426H10.0844C10.0061 8.64026 9.81963 8.31192 9.52503 8.04926C9.23416 7.78304 8.84446 7.64993 8.35594 7.64993C7.942 7.64993 7.57841 7.75642 7.26516 7.96939C6.95191 8.17882 6.70765 8.48053 6.53238 8.87453C6.36084 9.26854 6.27507 9.74063 6.27507 10.2908C6.27507 10.8481 6.36084 11.3273 6.53238 11.7284C6.70392 12.1259 6.94445 12.433 7.25397 12.6495C7.56722 12.8625 7.93454 12.969 8.35594 12.969C8.65427 12.969 8.92091 12.9157 9.15584 12.8092C9.39451 12.6992 9.59402 12.5412 9.75437 12.3354C9.91473 12.1295 10.0247 11.8792 10.0844 11.5846H12.0198C11.9714 12.1632 11.7924 12.6761 11.4828 13.1234C11.1733 13.5671 10.7519 13.9149 10.2187 14.167C9.68538 14.4154 9.05888 14.5397 8.33916 14.5397Z" fill="white"/>
<path d="M17.4304 14.5397C16.5727 14.5397 15.8362 14.3604 15.2208 14.0019C14.6093 13.6434 14.1375 13.1482 13.8056 12.5164C13.4775 11.881 13.3134 11.1498 13.3134 10.3228C13.3134 9.49216 13.4812 8.75917 13.8168 8.1238C14.1524 7.48487 14.626 6.98793 15.2376 6.63298C15.8529 6.27447 16.5801 6.09521 17.4192 6.09521C18.1165 6.09521 18.7337 6.21768 19.2707 6.4626C19.8114 6.70397 20.2422 7.0465 20.5629 7.4902C20.8836 7.93035 21.0663 8.44503 21.1111 9.03426H19.1756C19.0973 8.64026 18.9109 8.31192 18.6162 8.04926C18.3254 7.78304 17.9357 7.64993 17.4472 7.64993C17.0332 7.64993 16.6696 7.75642 16.3564 7.96939C16.0431 8.17882 15.7989 8.48053 15.6236 8.87453C15.4521 9.26854 15.3663 9.74063 15.3663 10.2908C15.3663 10.8481 15.4521 11.3273 15.6236 11.7284C15.7951 12.1259 16.0357 12.433 16.3452 12.6495C16.6584 12.8625 17.0258 12.969 17.4472 12.969C17.7455 12.969 18.0121 12.9157 18.2471 12.8092C18.4857 12.6992 18.6852 12.5412 18.8456 12.3354C19.0059 12.1295 19.116 11.8792 19.1756 11.5846H21.1111C21.0626 12.1632 20.8836 12.6761 20.5741 13.1234C20.2645 13.5671 19.8431 13.9149 19.3099 14.167C18.7766 14.4154 18.1501 14.5397 17.4304 14.5397Z" fill="white"/>
</svg>

<svg xmlns="http://www.w3.org/2000/svg" width="26" height="20" fill="none" viewBox="0 0 26 20"><path fill="#fff" fill-rule="evenodd" d="M6.032.667h13.27c3.33 0 6.031 2.7 6.031 6.031v7.239c0 3.33-2.7 6.031-6.031 6.031H6.032A6.03 6.03 0 0 1 0 13.937V6.698C0 3.368 2.7.667 6.032.667M1.81 6.698a4.22 4.22 0 0 1 4.222-4.222h13.27a4.22 4.22 0 0 1 4.222 4.222v7.239a4.22 4.22 0 0 1-4.222 4.222H6.032a4.22 4.22 0 0 1-4.222-4.222z" clip-rule="evenodd"/><path fill="#fff" d="M8.34 14.54q-1.288 0-2.21-.538a3.66 3.66 0 0 1-1.416-1.486q-.492-.953-.492-2.193 0-1.245.504-2.2a3.65 3.65 0 0 1 1.42-1.49q.924-.538 2.182-.538 1.046 0 1.852.368.81.361 1.292 1.027.48.66.548 1.544h-1.936a1.74 1.74 0 0 0-.559-.985q-.435-.4-1.17-.4-.62 0-1.09.32-.47.315-.733.906-.257.591-.257 1.416 0 .835.257 1.437.258.597.722.922.47.32 1.102.319.447 0 .8-.16.358-.165.598-.474t.33-.75h1.936a3.1 3.1 0 0 1-.537 1.538 3.14 3.14 0 0 1-1.264 1.044q-.8.372-1.88.373m9.091 0q-1.286 0-2.21-.538a3.66 3.66 0 0 1-1.414-1.486q-.493-.953-.493-2.193 0-1.245.504-2.2a3.65 3.65 0 0 1 1.42-1.49q.924-.538 2.182-.538 1.046 0 1.852.368.81.361 1.292 1.027.48.66.548 1.544h-1.935a1.74 1.74 0 0 0-.56-.985q-.435-.4-1.169-.4-.62 0-1.09.32-.47.315-.733.906-.258.591-.258 1.416 0 .835.258 1.437.257.597.721.922.47.32 1.102.319.448 0 .8-.16.358-.165.599-.474.24-.309.33-.75h1.935a3.1 3.1 0 0 1-.537 1.538 3.14 3.14 0 0 1-1.264 1.044q-.8.372-1.88.373"/></svg>
